!!!OTL: 144. Freylekhs
!!!Genre:	Freylekhs
!!!Mode:	Minor
!!!Listening/dance:	dance
!!!:	*B-:
!!!One_Mode:	no
**kern
*thru
*I"P1
*clefG2
*k[b-e-]
*B-:
8f
=10!|:
!LO:TX:a:i:t=Bb-major
4b-
8ffL
8ee-J
=11
4.dd
8cc
=12
16b-LL
16b-
16b-
16b-JJ
8ffL
8ee-J
=13
4.dd
8cc
=14
8.b-L
16fJk
16b-LL
16cc
16dd
16ee-JJ
=15
16ffLL
16ff
16ff
16ddJJ
16ee-LL
16ee-
16ee-
16ccJJ
=16
16ddLL
16dd
16dd
16b-JJ
16ccLL
16cc
16cc
16aJJ
=17
4b-
!LO:TX:b:Bi:t=Dal Segno al Fine
16ddLL
16cc
16b-
16aJJ
=:|!
4b-
8ffL
8ee-J
=11
4.dd
8cc
=12
16b-LL
16b-
16b-
16b-JJ
8ffL
8ee-J
=13
4.dd
8cc
=14
8.b-L
16fJk
16b-LL
16cc
16dd
16ee-JJ
=15
16ffLL
16ff
16ff
16ddJJ
16ee-LL
16ee-
16ee-
16ccJJ
=16
16ddLL
16dd
16dd
16b-JJ
16ccLL
16cc
16cc
16aJJ
=17
4b-
!LO:TX:b:Bi:t=Dal Segno al Fine
16ddLL
16cc
16b-
16aJJ
=:|!
!!!End-Modulation
*-
